X: 20
T: Maintenons nous / Resveille, qui dort
N: Derived from Ano3026-Maintenons_nous__Resveille_qui_dort--Escorial_B.krn
C: Anonymous
%%abc-version 2.0
%%abcx-abcm2ps-target-version 5.9.1 (29 Sep 2008)
%%abc-creator hum2abc beta
%%abcx-conversion-date 2019/02/16 20:18:27
%%abc-edited-by Jesse Rodin
%%abc-edited-by Chris Gage 03-05-2015
%%abcx-initial-encoding-date 2015/03/14/
%%humdrum-veritas 796840615
%%humdrum-veritas-data 219097792
%%linebreak <none>
%%barnumbers 0
L: 1/4
M: 2/1
Q: 1/2=120
%%staves [1 2 3 4]
V: 1 clef=treble
V: 2 clef=treble-8
V: 3 clef=treble-8
V: 4 clef=treble-8
K: C
[V:1] G8- | 
[V:2] G4G4 | 
[V:3] z8 | 
[V:4] d8 | 
[V:1] G4E4 | 
[V:2] B4c4 | 
[V:3] z8 | 
[V:4] G4A4 | 
[V:1] F6G2 | 
[V:2] d8- | 
[V:3] z8 | 
[V:4] D8 | 
[V:1] A8 | 
[V:2] d4c4 | 
[V:3] z8 | 
[V:4] F6A2 | 
[V:1] _B4A4 | 
[V:2] d4f4 | 
[V:3] z8 | 
[V:4] G4F4 | 
[V:1] G6E2 | 
[V:2] e8 | 
[V:3] z8 | 
[V:4] c8 | 
[V:1] F8 | 
[V:2] d8 | 
[V:3] z8 | 
[V:4] z4d4- | 
[V:1] z4G4- | 
[V:2] z8 | 
[V:3] G4G4 | 
[V:4] d4B4 | 
[V:1] G4A4 | 
[V:2] z8 | 
[V:3] B4c4 | 
[V:4] G4z4 | 
[V:1] B6c2 | 
[V:2] z8 | 
[V:3] d8- | 
[V:4] G8 | 
[V:1] d4e4- | 
[V:2] z8 | 
[V:3] d4c4 | 
[V:4] D4A4 | 
[V:1] e2d2d4- | 
[V:2] z8 | 
[V:3] d4f4 | 
[V:4] G4D4 | 
[V:1] d2^c2c2B2 | 
[V:2] z8 | 
[V:3] e8 | 
[V:4] A8 | 
[V:1] d8 | 
[V:2] z8 | 
[V:3] d8 | 
[V:4] D8 | 
[V:1] z8 | 
[V:2] B8 | 
[V:3] z8 | 
[V:4] d8 | 
[V:1] A8 | 
[V:2] c8 | 
[V:3] z8 | 
[V:4] e8 | 
[V:1] _B4A4 | 
[V:2] G4F4 | 
[V:3] z8 | 
[V:4] d8- | 
[V:1] G4F2E2 | 
[V:2] G8- | 
[V:3] z8 | 
[V:4] d8 | 
[V:1] D4A4- | 
[V:2] G4F4 | 
[V:3] z8 | 
[V:4] z4f4 | 
[V:1] A2G2G4- | 
[V:2] G4G4 | 
[V:3] z8 | 
[V:4] d4e4- | 
[V:1] G4c4 | 
[V:2] A8 | 
[V:3] z8 | 
[V:4] e4f4 | 
[V:1] B4d4- | 
[V:2] G8 | 
[V:3] z8 | 
[V:4] g8 | 
[V:1] d4G4- | 
[V:2] z8 | 
[V:3] B8 | 
[V:4] d8 | 
[V:1] G4E4 | 
[V:2] z8 | 
[V:3] c8 | 
[V:4] z4c4 | 
[V:1] D8 | 
[V:2] z8 | 
[V:3] G4F4 | 
[V:4] d2e2f4 | 
[V:1] z4G4- | 
[V:2] z8 | 
[V:3] G8 | 
[V:4] d8 | 
[V:1] G4A4 | 
[V:2] z8 | 
[V:3] G4F4 | 
[V:4] B4A4 | 
[V:1] B4G4- | 
[V:2] z8 | 
[V:3] G4G4 | 
[V:4] d2e2d4- | 
[V:1] G2^F2F2E2 | 
[V:2] z8 | 
[V:3] A8 | 
[V:4] d4c4 | 
[V:1] G8 | 
[V:2] z8 | 
[V:3] G8 | 
[V:4] d8 | 
[V:1] z8 | 
[V:2] c8 | 
[V:3] z8 | 
[V:4] A8- | 
[V:1] E8 | 
[V:2] c8 | 
[V:3] z8 | 
[V:4] A8 | 
[V:1] F4E2D2 | 
[V:2] d8 | 
[V:3] z8 | 
[V:4] D8 | 
[V:1] C6D2 | 
[V:2] e8 | 
[V:3] z8 | 
[V:4] A8- | 
[V:1] E8 | 
[V:2] c4c4 | 
[V:3] z8 | 
[V:4] A8 | 
[V:1] D4A4 | 
[V:2] f4f4 | 
[V:3] z8 | 
[V:4] z4F4 | 
[V:1] G4E4 | 
[V:2] e4c4 | 
[V:3] z8 | 
[V:4] G4A4 | 
[V:1] F6G2 | 
[V:2] d8 | 
[V:3] z8 | 
[V:4] D4D4 | 
[V:1] A8 | 
[V:2] c4c4 | 
[V:3] z8 | 
[V:4] F4A4 | 
[V:1] B4A4 | 
[V:2] d4c4 | 
[V:3] z8 | 
[V:4] G2D2F4 | 
[V:1] d8 | 
[V:2] B8 | 
[V:3] z8 | 
[V:4] G8 | 
[V:1] c4B2A2 | 
[V:2] A8 | 
[V:3] z8 | 
[V:4] c8 | 
[V:1] G8- | 
[V:2] z8 | 
[V:3] c8 | 
[V:4] z8 | 
[V:1] G4A4- | 
[V:2] z8 | 
[V:3] c8 | 
[V:4] C4F4- | 
[V:1] A4B4- | 
[V:2] z8 | 
[V:3] d8 | 
[V:4] F2D2G4 | 
[V:1] B4G4- | 
[V:2] z8 | 
[V:3] e8 | 
[V:4] E8 | 
[V:1] G4c4- | 
[V:2] z8 | 
[V:3] c4c4 | 
[V:4] z4A4 | 
[V:1] c4A4 | 
[V:2] z8 | 
[V:3] f4f4 | 
[V:4] F8 | 
[V:1] G4c4- | 
[V:2] z8 | 
[V:3] e4c4 | 
[V:4] C8 | 
[V:1] c4B4 | 
[V:2] z8 | 
[V:3] d8 | 
[V:4] G8 | 
[V:1] c6A2 | 
[V:2] z8 | 
[V:3] c4c4 | 
[V:4] C8 | 
[V:1] _B4A4- | 
[V:2] z8 | 
[V:3] d4c4 | 
[V:4] G4A2F2 | 
[V:1] A2G2G2F2 | 
[V:2] z8 | 
[V:3] _B8 | 
[V:4] G8 | 
[V:1] A8 | 
[V:2] z8 | 
[V:3] A8 | 
[V:4] D8 | 
[V:1] d4d4 | 
[V:2] G4G4 | 
[V:3] z8 | 
[V:4] z4d4- | 
[V:1] B4B4 | 
[V:2] G4G4 | 
[V:3] z8 | 
[V:4] d8- | 
[V:1] G4G4 | 
[V:2] G4G4 | 
[V:3] z8 | 
[V:4] d4B4- | 
[V:1] D8 | 
[V:2] G4D4 | 
[V:3] z8 | 
[V:4] B4A4 | 
[V:1] E4D4- | 
[V:2] G4G4 | 
[V:3] z8 | 
[V:4] B8 | 
[V:1] D2E2F4 | 
[V:2] G4A4 | 
[V:3] z8 | 
[V:4] G4D4 | 
[V:1] G6A2 | 
[V:2] B8 | 
[V:3] z8 | 
[V:4] d8 | 
[V:1] B8 | 
[V:2] G8 | 
[V:3] z8 | 
[V:4] z8 | 
[V:1] G8 | 
[V:2] z8 | 
[V:3] G4G4 | 
[V:4] z8 | 
[V:1] D8 | 
[V:2] z8 | 
[V:3] G4G4 | 
[V:4] g8- | 
[V:1] E4D4 | 
[V:2] z8 | 
[V:3] G4G4 | 
[V:4] g8 | 
[V:1] G4A4 | 
[V:2] z8 | 
[V:3] G4D4 | 
[V:4] e4f4 | 
[V:1] B4G4- | 
[V:2] z8 | 
[V:3] G4G4 | 
[V:4] d4e4- | 
[V:1] G4^F4 | 
[V:2] z8 | 
[V:3] G4A4 | 
[V:4] e4c4 | 
[V:1] G4d4- | 
[V:2] z8 | 
[V:3] B8 | 
[V:4] d8- | 
[V:1] d2c2B4- | 
[V:2] z8 | 
[V:3] G8 | 
[V:4] d8 | 
[V:1] B2A2A4- | 
[V:2] d4d4 | 
[V:3] z8 | 
[V:4] G4D4- | 
[V:1] A2G2c4 | 
[V:2] B4A4 | 
[V:3] z8 | 
[V:4] D4z4 | 
[V:1] B6G2 | 
[V:2] G8 | 
[V:3] z8 | 
[V:4] d8 | 
[V:1] B4A4- | 
[V:2] z8 | 
[V:3] d4d4 | 
[V:4] G4d4- | 
[V:1] A2G2^F2E2 | 
[V:2] z8 | 
[V:3] B4A4 | 
[V:4] d4c4 | 
[V:1] G8 | 
[V:2] z8 | 
[V:3] G8 | 
[V:4] d4B4 | 
[V:1] E4D4 | 
[V:2] A4B4- | 
[V:3] z8 | 
[V:4] c4d4- | 
[V:1] G8 | 
[V:2] B4z4 | 
[V:3] z4c4 | 
[V:4] d4e4- | 
[V:1] A4E2F2 | 
[V:2] z8 | 
[V:3] A8 | 
[V:4] e4c4 | 
[V:1] D8 | 
[V:2] B4G4- | 
[V:3] z8 | 
[V:4] G8 | 
[V:1] G6E2 | 
[V:2] G4z4 | 
[V:3] z4G4 | 
[V:4] d8 | 
[V:1] F2G2A4- | 
[V:2] z4d4 | 
[V:3] d4d4 | 
[V:4] z4f4 | 
[V:1] A2G2G4- | 
[V:2] B4G4 | 
[V:3] G4B4 | 
[V:4] d4d4- | 
[V:1] G2^F2F2E2 | 
[V:2] A8 | 
[V:3] d8 | 
[V:4] d4d4 | 
[V:1] G8 |]  
[V:2] G8 |]  
[V:3] G8 |]  
[V:4] d8 |]  



